actions/16/go-next.svg

<?xml version="1.0" encoding="UTF-8" standalone="no"?>
<svg
   xmlns:dc="http://purl.org/dc/elements/1.1/"
   xmlns:cc="http://creativecommons.org/ns#"
   xmlns:rdf="http://www.w3.org/1999/02/22-rdf-syntax-ns#"
   xmlns:svg="http://www.w3.org/2000/svg"
   xmlns="http://www.w3.org/2000/svg"
   xmlns:xlink="http://www.w3.org/1999/xlink"
   version="1.1"
   width="16"
   height="16"
   id="svg4524">
  <defs
     id="defs4526">
    <linearGradient
       id="linearGradient2867-449-88-871-390-598-476-591-434-148-57-177-641-289-620-227-114-444-680-744-4-1">
      <stop
         id="stop5430-5-0"
         style="stop-color:#737373;stop-opacity:1"
         offset="0" />
      <stop
         id="stop5432-2-0"
         style="stop-color:#636363;stop-opacity:1"
         offset="0.26238" />
      <stop
         id="stop5434-9-6"
         style="stop-color:#4b4b4b;stop-opacity:1"
         offset="0.704952" />
      <stop
         id="stop5436-2-7"
         style="stop-color:#3f3f3f;stop-opacity:1"
         offset="1" />
    </linearGradient>
    <radialGradient
       cx="16.202444"
       cy="-19.005346"
       r="19.99999"
       fx="16.202444"
       fy="-19.005346"
       id="radialGradient3769"
       xlink:href="#linearGradient2867-449-88-871-390-598-476-591-434-148-57-177-641-289-620-227-114-444-680-744-4-1"
       gradientUnits="userSpaceOnUse"
       gradientTransform="matrix(0,1.5000006,-1.5241254,0,-16.959842,-23.077676)" />
    <radialGradient
       cx="16.202444"
       cy="-19.005346"
       r="19.99999"
       fx="16.202444"
       fy="-19.005346"
       id="radialGradient3896"
       xlink:href="#linearGradient2867-449-88-871-390-598-476-591-434-148-57-177-641-289-620-227-114-444-680-744-4-1"
       gradientUnits="userSpaceOnUse"
       gradientTransform="matrix(0,1.5000006,-1.5241254,0,-17.131885,-23.077676)" />
    <radialGradient
       cx="16.202444"
       cy="-19.005346"
       r="19.99999"
       fx="16.202444"
       fy="-19.005346"
       id="radialGradient3896-0"
       xlink:href="#linearGradient2867-449-88-871-390-598-476-591-434-148-57-177-641-289-620-227-114-444-680-744-4-1-5"
       gradientUnits="userSpaceOnUse"
       gradientTransform="matrix(0,1.2955087,1.315286,0,33.263773,-22.270403)" />
    <linearGradient
       id="linearGradient2867-449-88-871-390-598-476-591-434-148-57-177-641-289-620-227-114-444-680-744-4-1-5">
      <stop
         id="stop5430-5-0-9"
         style="stop-color:#737373;stop-opacity:1"
         offset="0" />
      <stop
         id="stop5432-2-0-0"
         style="stop-color:#636363;stop-opacity:1"
         offset="0.26238" />
      <stop
         id="stop5434-9-6-8"
         style="stop-color:#4b4b4b;stop-opacity:1"
         offset="0.704952" />
      <stop
         id="stop5436-2-7-0"
         style="stop-color:#3f3f3f;stop-opacity:1"
         offset="1" />
    </linearGradient>
    <linearGradient
       id="linearGradient2264">
      <stop
         id="stop2266"
         style="stop-color:#d7e866;stop-opacity:1"
         offset="0" />
      <stop
         id="stop2268"
         style="stop-color:#8cab2a;stop-opacity:1"
         offset="1" />
    </linearGradient>
  </defs>
  <metadata
     id="metadata4529">
    <rdf:RDF>
      <cc:Work
         rdf:about="">
        <dc:format>image/svg+xml</dc:format>
        <dc:type
           rdf:resource="http://purl.org/dc/dcmitype/StillImage" />
        <dc:title />
      </cc:Work>
    </rdf:RDF>
  </metadata>
  <path
     d="m 7.9472124,2.0025296 c 0.2146054,-0.00858 0.4151289,0.087705 0.572993,0.2455684 l 6.2210666,6.0846393 c 0.128264,0.128264 0.208392,0.2767305 0.245568,0.4365661 0.0191,0.082101 0.03256,0.1635891 0.02729,0.2455684 0.0015,0.026447 0.0011,0.055217 0,0.081856 -0.0083,0.048005 -0.01027,0.090807 -0.02729,0.1364269 -0.03549,0.1648194 -0.113542,0.3318243 -0.245569,0.4638515 L 8.5202058,15.781646 C 8.2044777,16.097374 7.6889726,16.069113 7.3469344,15.727076 L 6.1190924,14.499234 C 5.777054,14.157196 5.748793,13.614405 6.0645214,13.298677 L 8.6020619,11 2.872132,11 C 2.388417,11 1.999,10.37172 1.999,9.8880048 l 0,-1.7462643 c 0,-0.4837152 0.389417,-0.8731319 0.873132,-0.8731319 l 5.7572153,0 L 6.064521,4.7037831 C 5.748793,4.3880545 5.777054,3.8725492 6.119092,3.5305109 L 7.346934,2.2753834 C 7.5179536,2.1043642 7.732607,2.0111138 7.9472124,2.0025296 z"
     id="rect3811-1-7"
     style="opacity:0.35;color:#000000;fill:#ffffff;fill-opacity:1;fill-rule:nonzero;stroke:none;stroke-width:1;marker:none;visibility:visible;display:inline;overflow:visible;enable-background:accumulate" />
  <path
     d="m 7.9618021,0.99005125 c 0.2121095,-0.00849 0.4103009,0.0867543 0.566329,0.24290775 l 6.3098679,6.1175038 c 0.126772,0.1268743 0.205968,0.2737323 0.242712,0.4318361 0.01887,0.081211 0.03218,0.1618167 0.02697,0.2429078 0.0015,0.026161 0.001,0.054619 0,0.080969 -0.0082,0.047485 -0.01015,0.089823 -0.02697,0.1349488 -0.03508,0.1630336 -0.112221,0.3282291 -0.242712,0.4588258 L 8.5281312,14.77699 C 8.2160751,15.089298 7.6985418,15.069174 7.3685051,14.72301 L 6.1549429,13.450146 C 5.824907,13.103983 5.788951,12.574904 6.1010069,12.262597 L 8.307839,10 2.945745,10 C 2.467656,10 2.082768,9.3673519 2.082768,8.8888775 l 0,-1.7273441 C 2.082768,6.6830592 2.467621,6 2.94571,6 L 8.307839,6 6.101007,3.7608247 C 5.791105,3.4463812 5.816883,2.938599 6.1549428,2.6002665 L 7.368505,1.2599487 C 7.5375356,1.0907826 7.7496926,0.99854245 7.9618021,0.99005125 z"
     id="rect3811-1"
     style="color:#000000;fill:url(#radialGradient3896-0);fill-opacity:1;fill-rule:nonzero;stroke:none;stroke-width:1;marker:none;visibility:visible;display:inline;overflow:visible;enable-background:accumulate" />
  <path
     d="m 7.9887702,1.5206764 c 0.073465,-0.00295 0.1534322,0.018607 0.2427124,0.107959 l 6.1487154,6.0187147 c 0.07291,0.072972 0.115625,0.1602302 0.13484,0.2429078 0.01477,0.063532 10e-4,0.091768 0,0.107959 -2.83e-4,0.00899 -2.83e-4,0.017996 0,0.02699 -0.0067,0.039064 0.0011,0.01894 0,0.02699 2.48e-4,0.00449 7.36e-4,0.00855 0,0.02699 -0.01164,0.026005 -0.02069,0.053173 -0.02697,0.080969 -0.02039,0.094763 -0.04549,0.1804764 -0.107872,0.2429078 L 8.2314826,14.421778 c -0.137953,0.138064 -0.3722747,0.140231 -0.566329,-0.05398 L 6.4515914,13.15326 C 6.2656016,12.96712 6.2684391,12.688805 6.3976554,12.559485 L 8.9056838,10.049438 C 9.1370265,9.8118139 8.9404372,9.5081732 8.6090353,9.5 l -5.5011963,0 c -0.247903,0 -0.5,-0.2518972 -0.5,-0.5 l 0,-2 c 0,-0.2481026 0.252097,-0.5 0.5,-0.5 0.784163,0 3.618032,0 5.5281643,0 C 8.9674054,6.491827 9.1639949,6.2385994 8.9326519,6.0009753 L 6.3976553,3.4639386 C 6.2597032,3.3258756 6.2575371,3.0913641 6.4515914,2.8971538 L 7.6651536,1.6556251 C 7.7624224,1.5582782 7.889192,1.5246627 7.9887702,1.5206764 z"
     id="path3996"
     style="opacity:0.1;color:#000000;fill:none;stroke:#000000;stroke-width:1;stroke-linecap:round;stroke-linejoin:round;stroke-miterlimit:4;stroke-opacity:1;stroke-dasharray:none;stroke-dashoffset:0;marker:none;visibility:visible;display:inline;overflow:visible;enable-background:accumulate" />
  <path
     d="M 7.9618021,2.546287 13.571156,8.0252066 7.9887702,13.504126 7.3145689,12.829383 9.4989809,10.643213 C 10.204214,9.9433345 9.6022094,8.4987217 8.6090353,8.5 l -5.0011963,0 0,-1 5.0281643,0 C 9.629177,7.5012779 10.231181,6.1070795 9.5259489,5.4072008 L 7.3145689,3.194041 z"
     id="path3996-3"
     style="opacity:0.02999998;color:#000000;fill:none;stroke:#000000;stroke-width:1;stroke-linecap:butt;stroke-linejoin:miter;stroke-miterlimit:4;stroke-opacity:1;stroke-dasharray:none;stroke-dashoffset:0;marker:none;visibility:visible;display:inline;overflow:visible;enable-background:accumulate" />
</svg>

<svg xmlns="http://www.w3.org/2000/svg" xmlns:xlink="http://www.w3.org/1999/xlink" viewBox="0 0 16 16"><defs><radialGradient cx="16.202" cy="-19.005" r="20" fx="16.202" fy="-19.005" id="b" xlink:href="#a" gradientUnits="userSpaceOnUse" gradientTransform="matrix(0 1.2955 1.3153 0 33.264 -22.27)"/><linearGradient id="a"><stop offset="0" stop-color="#737373"/><stop offset=".262" stop-color="#636363"/><stop offset=".705" stop-color="#4b4b4b"/><stop offset="1" stop-color="#3f3f3f"/></linearGradient></defs><path d="M7.947 2.003a.772.772 0 0 1 .573.245l6.22 6.085a.9.9 0 0 1 .247.436c.02.08.032.16.027.24a.86.86 0 0 1 0 .08c-.008.05-.01.09-.027.134a.93.93 0 0 1-.246.464l-6.22 6.09c-.312.315-.83.287-1.17-.055L6.12 14.5c-.343-.343-.37-.886-.055-1.2L8.602 11h-5.73C2.388 11 2 10.372 2 9.888V8.142a.87.87 0 0 1 .872-.873H8.63L6.064 4.7c-.316-.316-.288-.83.054-1.173L7.345 2.27a.904.904 0 0 1 .6-.27z" opacity=".35" color="#000" fill="#fff" overflow="visible"/><path d="M7.962.99a.762.762 0 0 1 .566.243l6.31 6.117a.89.89 0 0 1 .243.432.81.81 0 0 1 .03.243.875.875 0 0 1 0 .08c-.01.05-.01.09-.02.136a.92.92 0 0 1-.242.46l-6.31 6.08c-.312.32-.83.3-1.16-.05L6.16 13.45c-.33-.343-.367-.872-.055-1.184L8.31 10H2.946c-.478 0-.863-.633-.863-1.11V7.16c0-.48.385-1.162.863-1.162h5.362L6.1 3.76c-.31-.314-.283-.82.055-1.16L7.37 1.26a.89.89 0 0 1 .592-.27z" color="#000" fill="url(#b)" overflow="visible"/><path d="M7.99 1.52c.072-.002.152.02.24.11l6.15 6.017c.073.073.116.16.135.243.015.064 0 .092 0 .108v.027c-.007.04 0 .02 0 .027v.027a.43.43 0 0 0-.027.08.466.466 0 0 1-.108.24l-6.15 6.02c-.136.13-.37.14-.565-.06l-1.213-1.21c-.186-.187-.184-.465-.054-.595l2.508-2.51c.23-.238.034-.542-.297-.55H3.1c-.248 0-.5-.252-.5-.5V7c0-.248.252-.5.5-.5h5.53c.33-.008.53-.26.298-.5L6.4 3.465c-.138-.138-.14-.373.054-.567l1.213-1.24a.485.485 0 0 1 .324-.136z" opacity=".1" color="#000" fill="none" stroke="#000" stroke-linecap="round" stroke-linejoin="round" overflow="visible"/><path d="M7.962 2.546l5.61 5.48-5.583 5.478-.68-.675 2.19-2.19c.7-.7.1-2.15-.89-2.148H3.602v-1H8.63c.994 0 1.596-1.394.89-2.094l-2.21-2.21z" opacity=".03" color="#000" fill="none" stroke="#000" overflow="visible"/></svg>
